X: 07068
T: LAURIE'S POLKA
C: Bob McQuillen 9 Oct 88
B: Bob's Note Book 7 #68
%R: polka
Z: 2020 John Chambers <jc:trillian.mit.edu>
M: C
L: 1/8
K: D
|:A3B A2f2 | A3B A2f2 | g2f2 e2de | f2e2 d2B2 |\
| A3B A2f2 | A3B A2f2 | gagf e2de | f2d2 d4  :|
|:a3b a2f2 | a3b a2f2 | a2ba f2de | f2e2 e4   |\
| a3b a2f2 | a3b a2f2 | a2ba fede | f2d2 d4  :|
%%begintext align
%% I work all these
%% tunesout on the mandolin I got from Laurie
%% [Indenbaum?] of Saxton's River, Ut. This little
%% tune came flying out of it this morning
%% while I was working on another!
%%endtext

%%sep 1 1 500

%%sep 1 1 500

